public/mark.svg

<svg xmlns="http://www.w3.org/2000/svg" fill="none" viewBox="0 0 250 250"><path fill="#fff" fill-rule="evenodd" d="M125 250c69.036 0 125-55.964 125-125C250 55.9644 194.036 0 125 0 55.9644 0 0 55.9644 0 125c0 69.036 55.9644 125 125 125Zm.5-13c61.58 0 111.5-49.92 111.5-111.5C237 63.9202 187.08 14 125.5 14 63.9202 14 14 63.9202 14 125.5 14 187.08 63.9202 237 125.5 237Z" clip-rule="evenodd"/><path fill="#fff" d="M117.822.202642C120.198.0681551 122.591 0 125 0c69.036 0 125 55.9644 125 125 0 4.881-.28 9.698-.824 14.433C234.826 149.922 217.782 156 199.5 156c-51.086 0-92.5-47.458-92.5-106 0-17.9993 3.915-34.9508 10.822-49.797358Z"/><path fill="#fff" d="M.00552368 126.187C15.4643 112.883 34.6788 105 55.5 105c51.086 0 92.5 47.458 92.5 106 0 13.34-2.151 26.105-6.076 37.864C136.389 249.613 130.74 250 125 250 56.3607 250 .642897 194.676.00552368 126.187Z"/></svg>

<svg width="250" height="250" viewBox="0 0 250 250" fill="none" xmlns="http://www.w3.org/2000/svg"><path fill-rule="evenodd" clip-rule="evenodd" d="M125 250C194.036 250 250 194.036 250 125C250 55.9644 194.036 0 125 0C55.9644 0 0 55.9644 0 125C0 194.036 55.9644 250 125 250ZM125.5 237C187.08 237 237 187.08 237 125.5C237 63.9202 187.08 14 125.5 14C63.9202 14 14 63.9202 14 125.5C14 187.08 63.9202 237 125.5 237Z" fill="white"/><path d="M117.822 0.202642C120.198 0.0681551 122.591 0 125 0C194.036 0 250 55.9644 250 125C250 129.881 249.72 134.698 249.176 139.433C234.826 149.922 217.782 156 199.5 156C148.414 156 107 108.542 107 50C107 32.0007 110.915 15.0492 117.822 0.202642Z" fill="white"/><path d="M0.00552368 126.187C15.4643 112.883 34.6788 105 55.5 105C106.586 105 148 152.458 148 211C148 224.34 145.849 237.105 141.924 248.864C136.389 249.613 130.74 250 125 250C56.3607 250 0.642897 194.676 0.00552368 126.187Z" fill="white"/></svg>
